images/icons/trakt.svg

<svg fill="none" height="25" viewBox="0 0 25 25" width="25" xmlns="http://www.w3.org/2000/svg" xmlns:xlink="http://www.w3.org/1999/xlink"><clipPath id="a"><path d="m.400024.400002h24v24h-24z"/></clipPath><g clip-path="url(#a)" fill="#fff"><path d="m5.28955 18.9304c1.75691 1.9226 4.29282 3.116 7.11045 3.116 1.442 0 2.8012-.3149 4.0277-.8784l-6.69616-6.6796z"/><path d="m9.69839 10.4442-5.07183 5.0553-.67955-.6796 5.33701-5.33703 6.23208-6.23204c-.9779-.33149-2.0221-.51381-3.1161-.51381-5.33697 0-9.66294 4.32597-9.66294 9.66298 0 2.1713.71271 4.1768 1.93923 5.8011l5.05525-5.0552.34806.3315 7.2431 7.243c.1492-.0828.2818-.1657.4144-.2651l-8.00556-8.0056-4.85636 4.8564-.67956-.6796 5.53592-5.5359.34806.3315 8.453 8.4365c.1326-.0995.2487-.2155.3647-.315l-9.11604-9.116z"/><path d="m19.5768 18.8641c1.5415-1.7072 2.4862-3.9779 2.4862-6.4641 0-3.87845-2.2873-7.20994-5.5691-8.75138l-6.0828 6.0663zm-6.8287-7.3923-.6796-.6795 4.7901-4.79009.6795.67956zm4.5414-6.58009-5.5193 5.51939-.6796-.67961 5.5194-5.51933z"/><path d="m12.4 24.4c-6.61324 0-11.999976-5.3867-11.999976-12 0-6.61326 5.386736-11.999998 11.999976-11.999998 6.6133 0 12 5.386738 12 11.999998 0 6.6133-5.3867 12-12 12zm0-22.79005c-5.95025 0-10.79003 4.83978-10.79003 10.79005 0 5.9503 4.83978 10.7901 10.79003 10.7901 5.9503 0 10.7901-4.8398 10.7901-10.7901 0-5.95027-4.8398-10.79005-10.7901-10.79005z"/></g></svg>

<svg width="25" height="25" viewBox="0 0 25 25" fill="none" xmlns="http://www.w3.org/2000/svg">
<g clip-path="url(#clip0_4_221)">
<path d="M5.28955 18.9304C7.04646 20.853 9.58237 22.0464 12.4 22.0464C13.842 22.0464 15.2012 21.7315 16.4277 21.168L9.73154 14.4884L5.28955 18.9304Z" fill="white"/>
<path d="M9.69839 10.4442L4.62656 15.4995L3.94701 14.8199L9.28402 9.48287L15.5161 3.25083C14.5382 2.91934 13.494 2.73702 12.4 2.73702C7.06303 2.73702 2.73706 7.06299 2.73706 12.4C2.73706 14.5713 3.44977 16.5768 4.67629 18.2011L9.73154 13.1459L10.0796 13.4774L17.3227 20.7204C17.4719 20.6376 17.6045 20.5547 17.7371 20.4553L9.73154 12.4497L4.87518 17.3061L4.19562 16.6265L9.73154 11.0906L10.0796 11.4221L18.5326 19.8586C18.6652 19.7591 18.7813 19.6431 18.8973 19.5436L9.78126 10.4276L9.69839 10.4442Z" fill="white"/>
<path d="M19.5768 18.8641C21.1183 17.1569 22.063 14.8862 22.063 12.4C22.063 8.52155 19.7757 5.19006 16.4939 3.64862L10.4111 9.71492L19.5768 18.8641ZM12.7481 11.4718L12.0685 10.7923L16.8586 6.00221L17.5381 6.68177L12.7481 11.4718ZM17.2895 4.89171L11.7702 10.4111L11.0906 9.73149L16.61 4.21216L17.2895 4.89171Z" fill="white"/>
<path d="M12.4 24.4C5.78676 24.4 0.400024 19.0133 0.400024 12.4C0.400024 5.78674 5.78676 0.400002 12.4 0.400002C19.0133 0.400002 24.4 5.78674 24.4 12.4C24.4 19.0133 19.0133 24.4 12.4 24.4ZM12.4 1.60995C6.44975 1.60995 1.60997 6.44973 1.60997 12.4C1.60997 18.3503 6.44975 23.1901 12.4 23.1901C18.3503 23.1901 23.1901 18.3503 23.1901 12.4C23.1901 6.44973 18.3503 1.60995 12.4 1.60995Z" fill="white"/>
</g>
<defs>
<clipPath id="clip0_4_221">
<rect width="24" height="24" fill="white" transform="translate(0.400024 0.400002)"/>
</clipPath>
</defs>
</svg>
